Tizora/dist/assets/img/logo_footer.svg

<svg width="203" height="42" viewBox="0 0 203 42" fill="none" xmlns="http://www.w3.org/2000/svg">
<g clip-path="url(#clip0_23_121)">
<path d="M51.8314 0.0358887V6.74419H47.9501V2.87421L4.03633 2.982V6.74419H0V0.0358887H51.8314Z" fill="black"/>
<path d="M44.5857 20.8691V26.8229H48.2809V15.213H33.2623V38.6535L47.9346 38.6125V34.4294H51.9865V42H0V34.4294H3.89679V38.7305L18.7242 38.6895V15.213H3.70557V26.8229H7.4008V20.8691H12.3622V30.5543H0V10.6193H23.3497V38.6792L28.6368 38.6638V10.6193H51.9865V30.5543H39.6243V20.8691H44.5857Z" fill="black"/>
<path d="M64.2095 24.0821C64.5038 24.0953 64.798 24.0553 65.0778 23.964C65.272 23.8939 65.4361 23.7599 65.5429 23.5842C65.656 23.3899 65.7215 23.1719 65.7342 22.9478C65.7342 22.6963 65.7703 22.3986 65.7703 22.0547V0.964885H59.7753C59.002 0.921736 58.2325 1.09987 57.5581 1.47814C57.0241 1.82032 56.7243 2.10774 56.6589 2.34042H56.4521L56.9018 0.205261H78.8664L79.2799 2.34042H79.0732C79.0266 2.10945 78.7166 1.82716 78.1377 1.47814C77.4021 1.09883 76.5778 0.921635 75.75 0.964885H70.0341V22.0701C70.0044 22.5929 70.08 23.1164 70.2563 23.6099C70.4062 23.9435 70.8506 24.1231 71.5897 24.1231V24.3336H64.2095V24.0821Z" fill="black"/>
<path d="M83.5071 2.44307C83.5694 1.87389 83.4615 1.29908 83.197 0.790377C83.0278 0.642146 82.8287 0.531565 82.613 0.466056C82.3973 0.400547 82.17 0.381626 81.9463 0.410565V0.205261H89.3264V0.410565C89.1035 0.382045 88.8771 0.40118 88.6623 0.466686C88.4475 0.532193 88.2492 0.642556 88.0809 0.790377C87.8164 1.29908 87.7085 1.87389 87.7708 2.44307V22.0701C87.7085 22.6393 87.8164 23.2141 88.0809 23.7228C88.2497 23.8697 88.4481 23.9791 88.6629 24.0437C88.8777 24.1084 89.1039 24.1267 89.3264 24.0975V24.3079H81.9463V24.0975C82.1696 24.1271 82.3967 24.109 82.6124 24.0444C82.8281 23.9798 83.0274 23.8701 83.197 23.7228C83.4615 23.2141 83.5694 22.6393 83.5071 22.0701V2.44307Z" fill="black"/>
<path d="M97.9523 23.5329H111.71C112.572 23.5748 113.428 23.3795 114.186 22.9683C114.428 22.8554 114.644 22.6948 114.822 22.4963C114.999 22.2978 115.135 22.0655 115.219 21.8135H115.426L114.909 24.2926H92.4482V24.0821L109.048 0.964918H96.9859C96.1282 0.927385 95.2767 1.12635 94.5258 1.53977C94.2793 1.65013 94.0595 1.81168 93.8812 2.01355C93.7029 2.21542 93.5703 2.45291 93.4922 2.71H93.2855L93.8023 0.230957H114.521V0.410598L97.9523 23.5329Z" fill="black"/>
<path d="M131.039 -1.28798e-05C132.996 -0.0203838 134.941 0.293869 136.791 0.928986C138.462 1.49571 140.013 2.36591 141.365 3.49528C142.643 4.57502 143.677 5.91144 144.398 7.41658C145.131 8.96545 145.504 10.6582 145.489 12.3695C145.503 14.046 145.135 15.704 144.414 17.2198C143.711 18.6928 142.702 20.0012 141.453 21.059C140.128 22.1813 138.603 23.0465 136.956 23.6099C135.105 24.2351 133.16 24.544 131.204 24.5235C129.235 24.5461 127.276 24.2372 125.411 23.6099C123.739 23.0537 122.191 22.1823 120.852 21.0436C119.598 19.975 118.584 18.6565 117.875 17.1736C117.149 15.645 116.781 13.9725 116.801 12.2823C116.784 10.589 117.152 8.91381 117.875 7.38065C118.578 5.89254 119.587 4.5672 120.837 3.49015C122.164 2.36211 123.693 1.49159 125.343 0.923854C127.174 0.290588 129.101 -0.022017 131.039 -1.28798e-05ZM131.039 0.651826C129.659 0.633813 128.291 0.90489 127.023 1.44738C125.826 1.96119 124.765 2.74288 123.922 3.73138C123.03 4.80488 122.366 6.04609 121.969 7.38065C121.5 8.94939 121.274 10.5795 121.297 12.2156C121.274 13.8581 121.508 15.4943 121.989 17.0659C122.391 18.4075 123.063 19.6542 123.964 20.7305C124.808 21.7222 125.868 22.5103 127.064 23.0351C129.69 24.1063 132.635 24.1063 135.261 23.0351C136.458 22.528 137.52 21.7513 138.362 20.7665C139.243 19.7084 139.903 18.4872 140.305 17.1736C140.774 15.6295 141 14.0231 140.977 12.4106C141.002 10.7561 140.768 9.10787 140.285 7.52437C139.873 6.17285 139.197 4.9153 138.295 3.82377C137.439 2.81622 136.367 2.01132 135.158 1.46791C133.859 0.9068 132.455 0.628527 131.039 0.651826Z" fill="black"/>
<path d="M169.67 24.2925C168.963 24.2996 168.257 24.2533 167.557 24.154C166.998 24.0747 166.454 23.912 165.944 23.6715C165.462 23.4328 165.014 23.1326 164.611 22.7784C164.145 22.3541 163.728 21.8808 163.365 21.367L154.063 9.04874V22.0701C154.063 22.917 154.166 23.4713 154.378 23.7228C154.546 23.8712 154.744 23.9815 154.959 24.0462C155.174 24.1109 155.401 24.1284 155.623 24.0975V24.3079H148.259V24.0975C148.481 24.1284 148.708 24.1109 148.923 24.0462C149.138 23.9815 149.336 23.8712 149.504 23.7228C149.716 23.4713 149.82 22.917 149.82 22.0701V2.44309C149.82 1.59622 149.716 1.0419 149.504 0.7904C149.337 0.641133 149.139 0.529842 148.924 0.464255C148.709 0.398667 148.482 0.380355 148.259 0.410588V0.205284H160.037C161.408 0.194181 162.778 0.316233 164.125 0.569698C165.214 0.764366 166.27 1.10991 167.262 1.59622C168.039 1.97036 168.72 2.51641 169.252 3.19245C169.71 3.79698 169.953 4.53517 169.944 5.29168C169.948 5.98808 169.745 6.67015 169.36 7.25233C168.934 7.87663 168.377 8.40192 167.727 8.79211C166.962 9.26302 166.127 9.60956 165.252 9.81863C164.225 10.067 163.171 10.1877 162.115 10.1779C160.836 10.1696 159.561 10.0425 158.306 9.7981C157.102 9.59581 155.928 9.25118 154.807 8.77158L155.432 9.59793C155.871 10.1563 156.45 10.59 157.112 10.8554C157.758 11.1172 158.445 11.3687 159.179 11.6458C159.95 11.931 160.698 12.2742 161.417 12.6723C162.265 13.1751 162.996 13.8503 163.562 14.6535L167.903 20.5303C168.611 21.5285 169.47 22.4115 170.451 23.148C171.136 23.6987 171.979 24.0218 172.859 24.0718V24.2823L169.67 24.2925ZM154.078 7.57055C154.439 7.83129 154.836 8.03874 155.256 8.18646C155.763 8.37809 156.281 8.5392 156.807 8.66893C157.375 8.80751 157.939 8.91529 158.507 8.99741C159.029 9.07476 159.556 9.11422 160.084 9.11546C160.736 9.11273 161.386 9.03872 162.022 8.89476C162.674 8.76654 163.302 8.53612 163.882 8.21213C164.425 7.90505 164.889 7.47621 165.236 6.95978C165.596 6.38878 165.776 5.72384 165.753 5.05045C165.776 4.36972 165.577 3.69983 165.184 3.14113C164.759 2.59068 164.198 2.15774 163.557 1.88364C162.734 1.53021 161.863 1.29849 160.972 1.19587C159.864 1.05185 158.747 0.983258 157.629 0.990571H154.057L154.078 7.57055Z" fill="black"/>
<path d="M194.72 24.0821C195.073 24.1002 195.426 24.0424 195.754 23.9127C195.857 23.8659 195.95 23.7991 196.028 23.7163C196.105 23.6335 196.165 23.5363 196.204 23.4303C196.271 23.2007 196.271 22.9567 196.204 22.7271C196.12 22.433 196.004 22.149 195.857 21.8802L192.493 15.485H180.27L176.875 21.8494C176.726 22.1172 176.605 22.3992 176.513 22.6912C176.434 22.9169 176.416 23.1595 176.461 23.3944C176.483 23.5 176.526 23.6001 176.588 23.6884C176.651 23.7767 176.73 23.8513 176.823 23.9076C177.095 24.0482 177.401 24.1121 177.707 24.0924V24.3028H173.572V24.0924C173.852 24.0931 174.124 24.003 174.347 23.8358C174.604 23.653 174.837 23.4392 175.04 23.1993C175.256 22.9565 175.453 22.6974 175.629 22.4243C175.782 22.2011 175.917 21.9659 176.032 21.7211L187.604 0H188.637L200.379 21.8802C200.578 22.2771 200.799 22.6626 201.041 23.0351C201.199 23.2789 201.393 23.4985 201.615 23.6869C201.789 23.8367 201.996 23.9439 202.219 24C202.475 24.0597 202.737 24.0872 203 24.0821V24.2926H194.731L194.72 24.0821ZM192.085 14.7254L186.4 3.94696L180.653 14.7254H192.085Z" fill="black"/>
<path d="M71.3927 41.0094C70.4196 41.3876 69.3832 41.5791 68.3383 41.574C67.663 41.6072 66.9878 41.5043 66.3537 41.2714C65.7195 41.0386 65.1393 40.6805 64.6482 40.219C64.1601 39.6937 63.7814 39.0777 63.5339 38.4065C63.2864 37.7353 63.1751 37.0221 63.2063 36.308C63.2063 33.4286 65.1134 30.9803 68.6639 30.9803C69.4988 30.9641 70.328 31.1214 71.0981 31.4423L70.85 32.0428C70.1513 31.7224 69.3865 31.5694 68.6174 31.5962C65.749 31.5962 63.966 33.4594 63.966 36.2772C63.966 39.2027 65.687 40.9581 68.4468 40.9581C69.1947 41.0085 69.944 40.8819 70.6329 40.5885V36.9136H68.2194V36.3131H71.3823L71.3927 41.0094Z" fill="black"/>
<path d="M75.781 37.822L74.4941 41.4559H73.7344L77.5226 31.0778H78.2358L82.0034 41.4559H81.2437L79.9258 37.822H75.781ZM79.6881 37.2061L78.4167 33.7416C78.1687 33.0179 78.0291 32.4944 77.8999 31.9093H77.8689C77.7139 32.5098 77.5433 33.0487 77.3262 33.7108L76.0394 37.2061H79.6881Z" fill="black"/>
<path d="M84.5566 31.0778H85.3009V40.8297H89.9522V41.4457H84.5566V31.0778Z" fill="black"/>
<path d="M92.458 31.0778H93.2074V40.8297H97.8587V41.4457H92.458V31.0778Z" fill="black"/>
<path d="M105.286 36.2977H101.115V40.84H105.767V41.4559H100.371V31.0778H105.539V31.6937H101.12V35.6818H105.291L105.286 36.2977Z" fill="black"/>
<path d="M108.531 31.2164C109.277 31.0724 110.035 31.0002 110.795 31.0009C112.159 31.0009 113.028 31.2934 113.617 31.8631C114.095 32.3596 114.357 33.0236 114.345 33.7109C114.356 34.3271 114.157 34.9289 113.783 35.4201C113.408 35.9114 112.878 36.2637 112.278 36.4209V36.4414C113.115 36.7032 113.643 37.4679 113.891 38.6433C114.049 39.6018 114.309 40.5411 114.666 41.4457H113.906C113.605 40.6264 113.382 39.781 113.239 38.9204C112.914 37.4269 112.263 36.7494 110.883 36.6878H109.26V41.4457H108.531V31.2164ZM109.281 36.0975H110.94C112.547 36.0975 113.601 35.2044 113.601 33.834C113.601 32.2481 112.423 31.6014 110.779 31.6014C110.276 31.5934 109.774 31.6399 109.281 31.74V36.0975Z" fill="black"/>
<path d="M119.549 41.4559V36.9547L116.231 31.0778H117.053L118.774 34.1574C119.219 34.9735 119.591 35.651 119.963 36.3901H119.994C120.304 35.6972 120.738 34.9735 121.203 34.142L122.986 31.0624H123.808L120.288 36.9547V41.4354L119.549 41.4559Z" fill="black"/>
</g>
<defs>
<clipPath id="clip0_23_121">
<rect width="203" height="42" fill="white"/>
</clipPath>
</defs>
</svg>

<svg width="203" height="42" fill="none" xmlns="http://www.w3.org/2000/svg"><g clip-path="url(#clip0_23_121)" fill="#000"><path d="M51.831.036v6.708h-3.88v-3.87l-43.915.108v3.762H0V.036h51.831zM44.586 20.87v5.953h3.695v-11.61H33.262v23.44l14.673-.04v-4.184h4.051V42H0v-7.57h3.897v4.3l14.827-.04V15.213H3.706v11.61H7.4v-5.954h4.961v9.685H0V10.62h23.35v28.06l5.287-.015V10.619h23.35v19.935H39.623V20.87h4.962zm19.624 3.212c.294.013.588-.027.868-.118a.903.903 0 00.465-.38c.113-.194.178-.412.191-.636 0-.252.036-.55.036-.893V.965h-5.995a4.07 4.07 0 00-2.217.513c-.534.342-.834.63-.9.862h-.206l.45-2.135h21.964l.414 2.135h-.207c-.046-.23-.356-.513-.935-.862A4.678 4.678 0 0075.75.965h-5.716V22.07c-.03.523.046 1.046.222 1.54.15.334.595.513 1.334.513v.21h-7.38v-.25zM83.507 2.443a2.898 2.898 0 00-.31-1.653 1.585 1.585 0 00-1.25-.38V.206h7.38v.206a1.587 1.587 0 00-1.246.38 2.898 2.898 0 00-.31 1.652V22.07c-.063.57.045 1.144.31 1.653a1.58 1.58 0 001.245.375v.21h-7.38v-.21a1.593 1.593 0 001.251-.375 2.898 2.898 0 00.31-1.653V2.443zm14.445 21.09h13.758a4.712 4.712 0 002.476-.565 1.976 1.976 0 001.033-1.154h.207l-.517 2.479h-22.46v-.21L109.047.964H96.986a4.678 4.678 0 00-2.46.575 1.89 1.89 0 00-1.034 1.17h-.207L93.802.23h20.719v.18L97.952 23.533zM131.039 0c1.957-.02 3.902.294 5.752.929a14.298 14.298 0 014.574 2.566 11.82 11.82 0 013.033 3.922 11.345 11.345 0 011.091 4.953 11.076 11.076 0 01-1.075 4.85 11.552 11.552 0 01-2.961 3.839 13.935 13.935 0 01-4.497 2.55 17.407 17.407 0 01-5.752.914 17.542 17.542 0 01-5.793-.913 13.724 13.724 0 01-4.559-2.566 11.736 11.736 0 01-2.977-3.87 11.095 11.095 0 01-1.074-4.892 11.228 11.228 0 011.074-4.901 11.776 11.776 0 012.962-3.89 13.98 13.98 0 014.506-2.567A16.842 16.842 0 01131.039 0zm0 .652a9.882 9.882 0 00-4.016.795 8.46 8.46 0 00-3.101 2.284 10.31 10.31 0 00-1.953 3.65 16.088 16.088 0 00-.672 4.835 15.817 15.817 0 00.692 4.85 10.328 10.328 0 001.975 3.665 8.616 8.616 0 003.1 2.304 10.856 10.856 0 008.197 0 8.38 8.38 0 003.101-2.268 10.346 10.346 0 001.943-3.593 15.62 15.62 0 00.672-4.763 15.923 15.923 0 00-.692-4.887 10.713 10.713 0 00-1.99-3.7 8.907 8.907 0 00-3.137-2.356 9.973 9.973 0 00-4.119-.816zm38.631 23.641a14.09 14.09 0 01-2.113-.139 5.64 5.64 0 01-1.613-.482 6.16 6.16 0 01-1.333-.894 8.685 8.685 0 01-1.246-1.411l-9.302-12.318V22.07c0 .847.103 1.401.315 1.653a1.553 1.553 0 001.245.375v.21h-7.364v-.21a1.56 1.56 0 001.245-.375c.212-.252.316-.806.316-1.653V2.443c0-.847-.104-1.401-.316-1.653a1.548 1.548 0 00-1.245-.38V.206h11.778c1.371-.01 2.741.111 4.088.365a11.86 11.86 0 013.137 1.026 5.65 5.65 0 011.99 1.596 3.41 3.41 0 01.692 2.1 3.517 3.517 0 01-.584 1.96 5.243 5.243 0 01-1.633 1.54 8.48 8.48 0 01-2.475 1.027 12.84 12.84 0 01-3.137.359 20.626 20.626 0 01-3.809-.38 15.366 15.366 0 01-3.499-1.026l.625.826a4.056 4.056 0 001.68 1.257c.646.262 1.333.514 2.067.79a16.28 16.28 0 012.238 1.027 6.975 6.975 0 012.145 1.981l4.341 5.877a11.834 11.834 0 002.548 2.618c.685.55 1.528.874 2.408.924v.21l-3.189.01zM154.078 7.57c.361.26.758.468 1.178.615.507.192 1.025.353 1.551.483.568.139 1.132.246 1.7.328.522.078 1.049.117 1.577.118a8.95 8.95 0 001.938-.22 6.312 6.312 0 001.86-.683 4.008 4.008 0 001.354-1.252c.36-.571.54-1.236.517-1.91a3.133 3.133 0 00-.569-1.909 4.084 4.084 0 00-1.627-1.257 9.227 9.227 0 00-2.585-.688 24.684 24.684 0 00-3.343-.205h-3.572l.021 6.58zm40.642 16.512a2.47 2.47 0 001.034-.17.853.853 0 00.45-.482c.067-.23.067-.473 0-.703a4.126 4.126 0 00-.347-.847l-3.364-6.395H180.27l-3.395 6.364a4.54 4.54 0 00-.362.842 1.356 1.356 0 00-.052.703.793.793 0 00.362.514c.272.14.578.204.884.184v.21h-4.135v-.21c.28.001.552-.089.775-.256a3.77 3.77 0 00.693-.637c.216-.243.413-.502.589-.775.153-.223.288-.458.403-.703L187.604 0h1.033l11.742 21.88c.199.397.42.783.662 1.155.158.244.352.463.574.652.174.15.381.257.604.313.256.06.518.087.781.082v.21h-8.269l-.011-.21zm-2.635-9.357L186.4 3.947l-5.747 10.778h11.432zM71.393 41.01a8.32 8.32 0 01-3.055.564 5.04 5.04 0 01-3.69-1.355 5.385 5.385 0 01-1.442-3.911c0-2.88 1.907-5.328 5.458-5.328a6.025 6.025 0 012.434.462l-.248.6a4.944 4.944 0 00-2.233-.446c-2.868 0-4.651 1.863-4.651 4.681 0 2.926 1.721 4.681 4.48 4.681a4.763 4.763 0 002.187-.37v-3.674h-2.414v-.6h3.163l.01 4.695zm4.388-3.188l-1.287 3.634h-.76l3.789-10.378h.713l3.767 10.378h-.76l-1.317-3.634H75.78zm3.907-.616l-1.271-3.464a15.696 15.696 0 01-.517-1.833h-.031c-.155.6-.326 1.14-.543 1.802l-1.287 3.495h3.65zm4.869-6.128h.744v9.752h4.651v.616h-5.395V31.078zm7.901 0h.75v9.752h4.65v.616h-5.4V31.078zm12.828 5.22h-4.171v4.542h4.652v.616h-5.396V31.078h5.168v.616h-4.419v3.988h4.171l-.005.616zm3.245-5.082a11.887 11.887 0 012.264-.215c1.364 0 2.233.292 2.822.862a2.6 2.6 0 01.728 1.848 2.742 2.742 0 01-.562 1.71 2.779 2.779 0 01-1.505 1v.02c.837.262 1.365 1.027 1.613 2.202.158.959.418 1.898.775 2.803h-.76a13.955 13.955 0 01-.667-2.526c-.325-1.493-.976-2.17-2.356-2.232h-1.623v4.758h-.729v-10.23zm.75 4.881h1.659c1.607 0 2.661-.893 2.661-2.263 0-1.586-1.178-2.233-2.822-2.233a6.97 6.97 0 00-1.498.139v4.357zm10.268 5.359v-4.501l-3.318-5.877h.822l1.721 3.08c.445.816.817 1.493 1.189 2.232h.031c.31-.693.744-1.416 1.209-2.248l1.783-3.08h.822l-3.52 5.893v4.48l-.739.02z"/></g><defs><clipPath id="clip0_23_121"><path fill="#fff" d="M0 0h203v42H0z"/></clipPath></defs></svg>
